X:1
T:Title
%%score { ( 1 4 ) | ( 2 3 ) }
L:1/8
M:4/4
K:D
V:1 treble nm="Grand Piano"
V:4 treble 
V:2 bass 
V:3 bass 
V:1
 z4 z2[Q:1/4=106] [FA]2 | [Fd]2 [Gc]2 [Ad]2 B2 | G2 [CA]2 [DF]2 [FA]2 | B2 d2 A2 F2 | %4
 [DF]4 [CE]2 [CA]2 | [DF]2 [FA]2 [Fd]2 [Ac]B | [DFA]2 [A,EG]2 [A,DF]2 [A,CE]2 | %7
 [A,D]2 [A,CG]2 [A,DF]2 [B,DE]2 |[M:9/8] [CE]3- [CE][K:bass] [F,D]2- [F,D][K:treble] [A,CA]2 | %9
[M:4/4] [CEA]2 [DE^G]2 [CEA]2 [A,DF]2 | [DFB]2 [EF^A]2 [DFB]2 [B,E^G]2 | [Ec]2 [GA]2 [Fd]2 [DA]2 | %12
 [CA]2 [EG]2 F2 E2 | D2 G2 F2 [B,DE]2 |[M:7/8] [CE]- [CE]3[K:bass] [F,D]3 |] %15
V:2
 z4 z2 [D,A,]2 | [D,A,]2 [E,A,]2 [F,D]2[K:treble] [G,DG]2 | %2
 [A,E]2[K:bass] [A,,A,]2 [D,A,]2 [D,D]2 | [G,DG]2 [G,B,D]2[K:bass] [F,D]2 [D,A,D]2 | %4
 [A,,A,]4 [A,,A,]2 [A,,A,]2 | [D,A,]2 [D,D]2 [D,A,]2 z G | D,2 C,2 D,2 G,2 | F,2 E,2 D,2 G,,2 | %8
[M:9/8] z2 G,- G, D,2- D, A,,2 |[M:4/4] A,,2 B,,2 C,2 D,2 | B,,2 C,2 D,2 E,2 | %11
 [A,,A,]2 [C,A,]2 [D,A,]2 [F,A,]2 | [E,A,]2 [A,,A,]2 [D,A,D]2 [G,A,C]2 | %13
 [F,A,]2 [E,A,C]2 [D,A,D]2 G,,2 |[M:7/8] z2 G,2 D,3 |] %15
V:3
 x8 | x6[K:treble] x2 | x2[K:bass] x6 | x4[K:bass] x4 | x8 | z4 z2 [D,D]2 | x8 | x8 | %8
[M:9/8] .A,,6 z3 |[M:4/4] x8 | x8 | x8 | x8 | x8 |[M:7/8] A,,- A,,3 z z2 |] %15
V:4
 x8 | x8 | x8 | x8 | x8 | x8 | x8 | x8 |[M:9/8] .A,3 z3[K:bass] z3[K:treble] |[M:4/4] x8 | x8 | %11
 x8 | x8 | x8 |[M:7/8] A,2 z z[K:bass] z z2 |] %15

